!!!OTL: Die dienende Schwester Es spielt ein Spielgraf an dem Rhein,
!!!ARE: Europa, Suedosteuropa, Rumaenien, Banat
!!!YOR: 4, S. 104
!!    ????
!!!SCT: Q0075G
!!!YEM: Copyright 1995, estate of Helmut Schaffrath.
**kern
*ICvox
*Ivox
!! Mixed meters:  2/4; 3/4
*M3/4
*k[b-]
*F:
{8c
=1
8b-
8b-
8b-
8b-
=2
8a
16a
16g
4f}
=3
{4cc
=4
8g
16g
16e
8c}
{8c
=5
8f
8f
4.g
16a
16g
=6
*M2/4
8f
16f
16c
8f}
{8c
=7
*M3/4
8f
8f
4.g
16a
16g
=8
8f
16f
16c
4.f}
==
!!!AGN: Ballade, Adelige als Dienstmagd, Tod; Kinder - Spiel, Tanz
!! Zweite Zeile = Refrain.
!!!ONB: ESAC (Essen Associative Code) Database: BALLADE
!!!AMT: irregular
!!!AIN: vox
!!!EED: Helmut Schaffrath
!!!EEV: 1.0
*-
